images/brands/cozy.svg

<svg fill="none" height="180" viewBox="0 0 520 180" width="520" xmlns="http://www.w3.org/2000/svg" xmlns:xlink="http://www.w3.org/1999/xlink"><clipPath id="a"><path d="m73 49h373.54v100h-373.54z"/></clipPath><g clip-path="url(#a)"><path clip-rule="evenodd" d="m169.007 149h-61.43c-19.07 0-34.577-15.61-34.577-34.798 0-9.151 3.5006-17.7949 9.8617-24.3355 5.5721-5.7241 12.7901-9.2871 20.5983-10.214.922-7.8587 4.459-15.1241 10.152-20.73 6.499-6.4041 15.086-9.9225 24.18-9.9225 9.091 0 17.68 3.5184 24.18 9.9199 5.669 5.5823 9.195 12.8082 10.141 20.6249 17.615 1.5886 31.471 16.5262 31.471 34.6592 0 19.186-15.517 34.796-34.58 34.796zm.118-6.524h.264c15.256 0 27.666-12.559 27.666-27.998 0-15.4352-12.41-27.9943-27.666-27.9943h-.277c-1.992 0-3.624-1.604-3.669-3.625-.344-15.0773-12.748-27.337-27.655-27.337-14.906 0-27.316 12.2651-27.657 27.3424-.045 1.9835-1.624 3.5822-3.587 3.6276-14.8959.3475-27.0148 12.9013-27.0148 27.9893 0 15.438 12.4098 27.997 27.6658 27.997h.225l.087-.005c.079 0 .159 0 .238.005h61.372zm-13.6-30.359v-.006c.593.389.76 1.193.373 1.791-.248.378-.658.588-1.076.588-.241 0-.486-.068-.7-.21-.578-.378-1.053-.808-1.45-1.26-4.329 3.931-9.802 5.895-15.275 5.895-5.459 0-10.919-1.956-15.24-5.869-.395.447-.865.867-1.427 1.234-.216.142-.459.21-.7.21-.423 0-.83-.207-1.076-.585-.389-.596-.222-1.397.374-1.791 2.186-1.431 2.291-4.07 2.291-4.175.023-.709.616-1.281 1.314-1.26.705.018 1.267.604 1.254 1.313 0 .094-.04 1.349-.64 2.825 7.779 7.36 19.979 7.349 27.743-.045-.585-1.454-.622-2.688-.627-2.783-.013-.709.551-1.3 1.262-1.313.71-.01 1.29.552 1.306 1.266.005.115.112 2.744 2.294 4.175zm69.365-13.1542c0-3.3513.523-6.3318 1.568-8.9414 1.044-2.6097 2.447-4.821 4.207-6.634s3.809-3.1865 6.146-4.1205c2.338-.9339 4.799-1.4009 7.384-1.4009 2.64 0 4.908.4807 6.806 1.4421 1.897.9615 3.533 2.074 4.908 3.3376l-3.382 4.3677c-1.21-1.0438-2.461-1.8954-3.754-2.5547-1.292-.6592-2.736-.9889-4.331-.9889-1.815 0-3.492.3709-5.032 1.1125-1.54.7417-2.86 1.7993-3.96 3.1728s-1.966 3.0079-2.599 4.9034c-.632 1.8954-.949 3.9968-.949 6.3043 0 2.3072.303 4.3952.908 6.2632s1.444 3.475 2.516 4.821c1.073 1.346 2.379 2.39 3.919 3.131 1.54.742 3.217 1.113 5.032 1.113 1.925 0 3.671-.398 5.239-1.195 1.567-.797 2.956-1.744 4.166-2.843l3.052 4.45c-1.815 1.593-3.836 2.857-6.063 3.791-2.228.934-4.551 1.401-6.971 1.401-2.64 0-5.115-.467-7.425-1.401s-4.304-2.294-5.981-4.079c-1.678-1.786-2.998-3.984-3.96-6.593-.963-2.61-1.444-5.563-1.444-8.8592zm34.708 0c0-3.3513.509-6.3318 1.526-8.9414 1.018-2.6097 2.379-4.821 4.084-6.634s3.671-3.1865 5.898-4.1205c2.228-.9339 4.579-1.4009 7.054-1.4009s4.826.467 7.054 1.4009c2.227.934 4.193 2.3075 5.898 4.1205s3.066 4.0243 4.084 6.634c1.017 2.6096 1.526 5.5901 1.526 8.9414 0 3.2962-.509 6.2492-1.526 8.8592-1.018 2.609-2.379 4.807-4.084 6.593-1.705 1.785-3.671 3.145-5.898 4.079-2.228.934-4.579 1.401-7.054 1.401s-4.826-.467-7.054-1.401c-2.227-.934-4.193-2.294-5.898-4.079-1.705-1.786-3.066-3.984-4.084-6.593-1.017-2.61-1.526-5.563-1.526-8.8592zm6.873-.1056c0 2.3078.275 4.3948.825 6.2628s1.333 3.475 2.351 4.821c1.017 1.346 2.241 2.39 3.671 3.132s2.998 1.112 4.703 1.112 3.272-.37 4.702-1.112 2.654-1.786 3.671-3.132c1.018-1.346 1.801-2.953 2.351-4.821s.825-3.955.825-6.2628c0-2.3074-.275-4.4089-.825-6.3043s-1.333-3.5299-2.351-4.9034c-1.017-1.3734-2.241-2.431-3.671-3.1727s-2.997-1.1125-4.702-1.1125-3.273.3708-4.703 1.1125-2.654 1.7993-3.671 3.1727c-1.018 1.3735-1.801 3.008-2.351 4.9034s-.825 3.9969-.825 6.3043zm34.708 16.4648 21.119-30.9037h-18.809v-5.5214h27.389v3.626l-21.119 30.9031h21.779v5.522h-30.359zm35.355 14.669c.44.11.935.233 1.485.371.55.137 1.072.206 1.567.206 2.31 0 4.194-.811 5.651-2.431 1.458-1.621 2.599-3.668 3.424-6.14l.907-2.967-16.087-40.1331h7.012l8.168 22.1681c.605 1.758 1.251 3.612 1.938 5.563.688 1.95 1.334 3.859 1.939 5.727h.33c.605-1.813 1.183-3.708 1.733-5.686s1.1-3.846 1.65-5.604l7.177-22.1681h6.6l-15.097 43.3471c-.715 1.978-1.513 3.819-2.393 5.522s-1.925 3.172-3.135 4.409c-1.21 1.236-2.585 2.211-4.125 2.925s-3.327 1.071-5.362 1.071c-.935 0-1.787-.068-2.557-.206-.77-.137-1.485-.343-2.145-.618zm35.779-15.236c0-1.593.481-2.87 1.443-3.832.963-.961 2.132-1.442 3.507-1.442 1.32 0 2.461.481 3.423 1.442.963.962 1.444 2.239 1.444 3.832 0 1.484-.481 2.706-1.444 3.668-.962.961-2.103 1.442-3.423 1.442-1.375 0-2.544-.481-3.507-1.442-.962-.962-1.443-2.184-1.443-3.668zm24.29-43.9612c-1.32 0-2.434-.412-3.341-1.2361-.908-.8241-1.362-1.868-1.362-3.1316 0-1.3185.454-2.3761 1.362-3.1727.907-.7967 2.021-1.195 3.341-1.195s2.433.3983 3.341 1.195c.907.7966 1.361 1.8542 1.361 3.1727 0 1.2636-.454 2.3075-1.361 3.1316-.908.8241-2.021 1.2361-3.341 1.2361zm-3.672 8.1031h6.765v40.0511h-6.765zm16.151 20.0659c0-3.3513.509-6.3318 1.527-8.9414 1.017-2.6097 2.378-4.821 4.083-6.634s3.672-3.1865 5.899-4.1205c2.227-.9339 4.579-1.4009 7.054-1.4009s4.826.467 7.053 1.4009c2.228.934 4.194 2.3075 5.899 4.1205s3.066 4.0243 4.083 6.634c1.018 2.6096 1.527 5.5901 1.527 8.9414 0 3.2962-.509 6.2492-1.527 8.8592-1.017 2.609-2.378 4.807-4.083 6.593-1.705 1.785-3.671 3.145-5.899 4.079-2.227.934-4.578 1.401-7.053 1.401s-4.827-.467-7.054-1.401-4.194-2.294-5.899-4.079c-1.705-1.786-3.066-3.984-4.083-6.593-1.018-2.61-1.527-5.563-1.527-8.8592zm7.217-.1056c0 2.3078.275 4.3948.825 6.2628s1.334 3.475 2.351 4.821c1.018 1.346 2.241 2.39 3.671 3.132s2.998 1.112 4.703 1.112 3.272-.37 4.702-1.112 2.654-1.786 3.671-3.132c1.018-1.346 1.802-2.953 2.352-4.821s.825-3.955.825-6.2628c0-2.3074-.275-4.4089-.825-6.3043s-1.334-3.5299-2.352-4.9034c-1.017-1.3734-2.241-2.431-3.671-3.1727s-2.997-1.1125-4.702-1.1125-3.273.3708-4.703 1.1125-2.653 1.7993-3.671 3.1727c-1.017 1.3735-1.801 3.008-2.351 4.9034s-.825 3.9969-.825 6.3043z" fill="#297ef1" fill-rule="evenodd"/></g></svg>

<svg width="520" height="180" viewBox="0 0 520 180" fill="none" xmlns="http://www.w3.org/2000/svg">
<g clip-path="url(#clip0_248_4912)">
<path fill-rule="evenodd" clip-rule="evenodd" d="M169.007 149H107.577C88.507 149 73 133.39 73 114.202C73 105.051 76.5006 96.4071 82.8617 89.8665C88.4338 84.1424 95.6518 80.5794 103.46 79.6525C104.382 71.7938 107.919 64.5284 113.612 58.9225C120.111 52.5184 128.698 49 137.792 49C146.883 49 155.472 52.5184 161.972 58.9199C167.641 64.5022 171.167 71.7281 172.113 79.5448C189.728 81.1334 203.584 96.071 203.584 114.204C203.584 133.39 188.067 149 169.004 149H169.007ZM169.125 142.476H169.389C184.645 142.476 197.055 129.917 197.055 114.478C197.055 99.0428 184.645 86.4837 169.389 86.4837H169.112C167.12 86.4837 165.488 84.8797 165.443 82.8587C165.099 67.7814 152.695 55.5217 137.788 55.5217C122.882 55.5217 110.472 67.7868 110.131 82.8641C110.086 84.8476 108.507 86.4463 106.544 86.4917C91.6481 86.8392 79.5292 99.393 79.5292 114.481C79.5292 129.919 91.939 142.478 107.195 142.478H107.42L107.507 142.473C107.586 142.473 107.666 142.473 107.745 142.478H169.117L169.125 142.476ZM155.525 112.117V112.111C156.118 112.5 156.285 113.304 155.898 113.902C155.65 114.28 155.24 114.49 154.822 114.49C154.581 114.49 154.336 114.422 154.122 114.28C153.544 113.902 153.069 113.472 152.672 113.02C148.343 116.951 142.87 118.915 137.397 118.915C131.938 118.915 126.478 116.959 122.157 113.046C121.762 113.493 121.292 113.913 120.73 114.28C120.514 114.422 120.271 114.49 120.03 114.49C119.607 114.49 119.2 114.283 118.954 113.905C118.565 113.309 118.732 112.508 119.328 112.114C121.514 110.683 121.619 108.044 121.619 107.939C121.642 107.23 122.235 106.658 122.933 106.679C123.638 106.697 124.2 107.283 124.187 107.992C124.187 108.086 124.147 109.341 123.547 110.817C131.326 118.177 143.526 118.166 151.29 110.772C150.705 109.318 150.668 108.084 150.663 107.989C150.65 107.28 151.214 106.689 151.925 106.676C152.635 106.666 153.215 107.228 153.231 107.942C153.236 108.057 153.343 110.686 155.525 112.117ZM224.89 98.9628C224.89 95.6115 225.413 92.631 226.458 90.0214C227.502 87.4117 228.905 85.2004 230.665 83.3874C232.425 81.5744 234.474 80.2009 236.811 79.2669C239.149 78.333 241.61 77.866 244.195 77.866C246.835 77.866 249.103 78.3467 251.001 79.3081C252.898 80.2696 254.534 81.3821 255.909 82.6457L252.527 87.0134C251.317 85.9696 250.066 85.118 248.773 84.4587C247.481 83.7995 246.037 83.4698 244.442 83.4698C242.627 83.4698 240.95 83.8407 239.41 84.5823C237.87 85.324 236.55 86.3816 235.45 87.7551C234.35 89.1286 233.484 90.763 232.851 92.6585C232.219 94.5539 231.902 96.6553 231.902 98.9628C231.902 101.27 232.205 103.358 232.81 105.226C233.415 107.094 234.254 108.701 235.326 110.047C236.399 111.393 237.705 112.437 239.245 113.178C240.785 113.92 242.462 114.291 244.277 114.291C246.202 114.291 247.948 113.893 249.516 113.096C251.083 112.299 252.472 111.352 253.682 110.253L256.734 114.703C254.919 116.296 252.898 117.56 250.671 118.494C248.443 119.428 246.12 119.895 243.7 119.895C241.06 119.895 238.585 119.428 236.275 118.494C233.965 117.56 231.971 116.2 230.294 114.415C228.616 112.629 227.296 110.431 226.334 107.822C225.371 105.212 224.89 102.259 224.89 98.9628ZM259.598 98.9628C259.598 95.6115 260.107 92.631 261.124 90.0214C262.142 87.4117 263.503 85.2004 265.208 83.3874C266.913 81.5744 268.879 80.2009 271.106 79.2669C273.334 78.333 275.685 77.866 278.16 77.866C280.635 77.866 282.986 78.333 285.214 79.2669C287.441 80.2009 289.407 81.5744 291.112 83.3874C292.817 85.2004 294.178 87.4117 295.196 90.0214C296.213 92.631 296.722 95.6115 296.722 98.9628C296.722 102.259 296.213 105.212 295.196 107.822C294.178 110.431 292.817 112.629 291.112 114.415C289.407 116.2 287.441 117.56 285.214 118.494C282.986 119.428 280.635 119.895 278.16 119.895C275.685 119.895 273.334 119.428 271.106 118.494C268.879 117.56 266.913 116.2 265.208 114.415C263.503 112.629 262.142 110.431 261.124 107.822C260.107 105.212 259.598 102.259 259.598 98.9628ZM266.471 98.8572C266.471 101.165 266.746 103.252 267.296 105.12C267.846 106.988 268.629 108.595 269.647 109.941C270.664 111.287 271.888 112.331 273.318 113.073C274.748 113.815 276.316 114.185 278.021 114.185C279.726 114.185 281.293 113.815 282.723 113.073C284.153 112.331 285.377 111.287 286.394 109.941C287.412 108.595 288.195 106.988 288.745 105.12C289.295 103.252 289.57 101.165 289.57 98.8572C289.57 96.5498 289.295 94.4483 288.745 92.5529C288.195 90.6575 287.412 89.023 286.394 87.6495C285.377 86.2761 284.153 85.2185 282.723 84.4768C281.293 83.7351 279.726 83.3643 278.021 83.3643C276.316 83.3643 274.748 83.7351 273.318 84.4768C271.888 85.2185 270.664 86.2761 269.647 87.6495C268.629 89.023 267.846 90.6575 267.296 92.5529C266.746 94.4483 266.471 96.5498 266.471 98.8572ZM301.179 115.322L322.298 84.4183H303.489V78.8969H330.878V82.5229L309.759 113.426H331.538V118.948H301.179V115.322ZM336.534 129.991C336.974 130.101 337.469 130.224 338.019 130.362C338.569 130.499 339.091 130.568 339.586 130.568C341.896 130.568 343.78 129.757 345.237 128.137C346.695 126.516 347.836 124.469 348.661 121.997L349.568 119.03L333.481 78.8969H340.493L348.661 101.065C349.266 102.823 349.912 104.677 350.599 106.628C351.287 108.578 351.933 110.487 352.538 112.355H352.868C353.473 110.542 354.051 108.647 354.601 106.669C355.151 104.691 355.701 102.823 356.251 101.065L363.428 78.8969H370.028L354.931 122.244C354.216 124.222 353.418 126.063 352.538 127.766C351.658 129.469 350.613 130.938 349.403 132.175C348.193 133.411 346.818 134.386 345.278 135.1C343.738 135.814 341.951 136.171 339.916 136.171C338.981 136.171 338.129 136.103 337.359 135.965C336.589 135.828 335.874 135.622 335.214 135.347L336.534 129.991ZM372.313 114.755C372.313 113.162 372.794 111.885 373.756 110.923C374.719 109.962 375.888 109.481 377.263 109.481C378.583 109.481 379.724 109.962 380.686 110.923C381.649 111.885 382.13 113.162 382.13 114.755C382.13 116.239 381.649 117.461 380.686 118.423C379.724 119.384 378.583 119.865 377.263 119.865C375.888 119.865 374.719 119.384 373.756 118.423C372.794 117.461 372.313 116.239 372.313 114.755ZM396.603 70.7938C395.283 70.7938 394.169 70.3818 393.262 69.5577C392.354 68.7336 391.9 67.6897 391.9 66.4261C391.9 65.1076 392.354 64.05 393.262 63.2534C394.169 62.4567 395.283 62.0584 396.603 62.0584C397.923 62.0584 399.036 62.4567 399.944 63.2534C400.851 64.05 401.305 65.1076 401.305 66.4261C401.305 67.6897 400.851 68.7336 399.944 69.5577C399.036 70.3818 397.923 70.7938 396.603 70.7938ZM392.931 78.8969H399.696V118.948H392.931V78.8969ZM409.082 98.9628C409.082 95.6115 409.591 92.631 410.609 90.0214C411.626 87.4117 412.987 85.2004 414.692 83.3874C416.397 81.5744 418.364 80.2009 420.591 79.2669C422.818 78.333 425.17 77.866 427.645 77.866C430.12 77.866 432.471 78.333 434.698 79.2669C436.926 80.2009 438.892 81.5744 440.597 83.3874C442.302 85.2004 443.663 87.4117 444.68 90.0214C445.698 92.631 446.207 95.6115 446.207 98.9628C446.207 102.259 445.698 105.212 444.68 107.822C443.663 110.431 442.302 112.629 440.597 114.415C438.892 116.2 436.926 117.56 434.698 118.494C432.471 119.428 430.12 119.895 427.645 119.895C425.17 119.895 422.818 119.428 420.591 118.494C418.364 117.56 416.397 116.2 414.692 114.415C412.987 112.629 411.626 110.431 410.609 107.822C409.591 105.212 409.082 102.259 409.082 98.9628ZM416.299 98.8572C416.299 101.165 416.574 103.252 417.124 105.12C417.674 106.988 418.458 108.595 419.475 109.941C420.493 111.287 421.716 112.331 423.146 113.073C424.576 113.815 426.144 114.185 427.849 114.185C429.554 114.185 431.121 113.815 432.551 113.073C433.981 112.331 435.205 111.287 436.222 109.941C437.24 108.595 438.024 106.988 438.574 105.12C439.124 103.252 439.399 101.165 439.399 98.8572C439.399 96.5498 439.124 94.4483 438.574 92.5529C438.024 90.6575 437.24 89.023 436.222 87.6495C435.205 86.2761 433.981 85.2185 432.551 84.4768C431.121 83.7351 429.554 83.3643 427.849 83.3643C426.144 83.3643 424.576 83.7351 423.146 84.4768C421.716 85.2185 420.493 86.2761 419.475 87.6495C418.458 89.023 417.674 90.6575 417.124 92.5529C416.574 94.4483 416.299 96.5498 416.299 98.8572Z" fill="#297EF1"/>
</g>
<defs>
<clipPath id="clip0_248_4912">
<rect width="373.54" height="100" fill="white" transform="translate(73 49)"/>
</clipPath>
</defs>
</svg>
